images/svg/youtube.svg

<svg width="20" height="14" viewBox="0 0 20 14" fill="none" xmlns="http://www.w3.org/2000/svg">
<path fill-rule="evenodd" clip-rule="evenodd" d="M18.6396 1.29955C18.9425 1.59218 19.1577 1.95455 19.2633 2.35004C19.5454 3.81562 19.6824 5.3025 19.6724 6.79171C19.678 8.25865 19.5411 9.72303 19.2633 11.1667C19.1577 11.5622 18.9425 11.9246 18.6396 12.2172C18.3367 12.5098 17.9567 12.7224 17.5381 12.8334C16.0085 13.2167 9.89017 13.2167 9.89017 13.2167C9.89017 13.2167 3.77182 13.2167 2.24224 12.8334C1.83211 12.7282 1.45786 12.5257 1.15565 12.2454C0.853432 11.9652 0.633467 11.6166 0.517006 11.2334C0.234893 9.76779 0.0979517 8.28091 0.10793 6.79171C0.100136 5.31363 0.237069 3.838 0.517006 2.38337C0.622644 1.98788 0.837788 1.62552 1.14071 1.33288C1.44363 1.04024 1.8236 0.827695 2.24224 0.716707C3.77182 0.333374 9.89017 0.333374 9.89017 0.333374C9.89017 0.333374 16.0085 0.333374 17.5381 0.683374C17.9567 0.794361 18.3367 1.00691 18.6396 1.29955ZM13.0031 6.79174L7.88962 9.51674V4.06674L13.0031 6.79174Z" fill="white"/>
</svg>

<svg xmlns="http://www.w3.org/2000/svg" width="20" height="14" fill="none"><path fill="#fff" fill-rule="evenodd" d="M18.64 1.3c.302.292.518.655.623 1.05.282 1.466.42 2.953.41 4.442a22.688 22.688 0 0 1-.41 4.375 2.28 2.28 0 0 1-.623 1.05 2.51 2.51 0 0 1-1.102.616c-1.53.384-7.648.384-7.648.384s-6.118 0-7.648-.384a2.516 2.516 0 0 1-1.086-.588 2.29 2.29 0 0 1-.639-1.012 22.688 22.688 0 0 1-.41-4.441C.1 5.314.238 3.838.518 2.383c.106-.395.32-.757.624-1.05A2.51 2.51 0 0 1 2.242.717C3.772.333 9.89.333 9.89.333s6.119 0 7.648.35a2.51 2.51 0 0 1 1.102.617Zm-5.637 5.492L7.89 9.517v-5.45l5.113 2.725Z" clip-rule="evenodd"/></svg>
